!!!COM:	Bach, Johann Sebastian
!!!CDT:	1685/02/21/-1750/07/28/
!!!OTL@@DE:	Mein Seele erhebet den Herrn
!!!SCT:	BWV 324
!!!PC#:	130
!!!AGN:	chorale
**kern	**kern	**kern	**kern
*ICvox	*ICvox	*ICvox	*ICvox
*Ibass	*Itenor	*Ialto	*Isoprn
*I"Bass	*I"Tenor	*I"Alto	*I"Soprano
*clefF4	*clefGv2	*clefG2	*clefG2
*k[f#]	*k[f#]	*k[f#]	*k[f#]
*e:	*e:	*e:	*e:
*M4/4	*M4/4	*M4/4	*M4/4
*met(c)	*met(c)	*met(c)	*met(c)
*MM100	*MM100	*MM100	*MM100
=1-	=1-	=1-	=1-
2E	2G	2e	2b
2F#	2A	2d	2dd
=2	=2	=2	=2
4G	4B	4d	4b
4F#	4A	4d#	4b
4E	4G	4e	4b
4D#	4F#	4f#	4b
=3	=3	=3	=3
4E	4G	4e	2cc
4F#	2A	2dnX	.
4G	.	.	2b
4E	4G	4d	.
=4	=4	=4	=4
4C	2G	2e	2a
4AA	.	.	.
2D	2F#	2d	2a
=5	=5	=5	=5
1GG;	1B;	1d;	1g;
=6	=6	=6	=6
2G	1G	1d	2b
2BB	.	.	2dd
=7	=7	=7	=7
!! 8 beats in this measure
0D	0F#	0d	0a
0D	0F#	0d	0a
=8	=8	=8	=8
!! 2 beats in this measure
2C	2A	2e	2e
=9	=9	=9	=9
4BB	2.B	2e	2g
4AA	.	.	.
2BB	.	2d#	2f#
.	4A	.	.
=10	=10	=10	=10
1EE;	1G;	1B;	1e;
==	==	==	==
*-	*-	*-	*-
!!!hum2abc: -Q '' -p '%%squarebreve' 
!!!title: @{PC#}. @{OTL@@DE}
!!!YOR1: 371 vierstimmige Choralges&auml;nge von Johann Sebastian Bach, 
!!!YOR2: 4th ed. by Alfred D&ouml;rffel (Leipzig: Breitkopf und H&auml;rtel, 
!!!YOR2: c.1875). 178 pp. Plate "V.A.10".  reprint: J.S. Bach, 371 Four-Part 
!!!YOR4: Chorales (New York: Associated Music Publishers, Inc., c.1940).
!!!SMS: B&H, 4th ed, Alfred D&ouml;rffel, c.1875, plate V.A.10
!!!EED:  Craig Stuart Sapp
!!!EEV:  2009/05/22
